svg/fluentui-system-icons/ic_fluent_archive_arrow_back_24_regular.svg

<svg width="24" height="24" viewBox="0 0 24 24" fill="none" xmlns="http://www.w3.org/2000/svg">
<path d="M10.25 11C9.83579 11 9.5 11.3358 9.5 11.75C9.5 12.1642 9.83579 12.5 10.25 12.5H13.3464C13.701 12.2051 14.0874 11.9473 14.4998 11.7323C14.4904 11.3263 14.1583 11 13.75 11H10.25ZM7.75 19.5H11.3135C11.4858 20.0335 11.7253 20.5368 12.0218 21H7.75C5.67893 21 4 19.3211 4 17.25V8.62111C3.39701 8.21748 3 7.5301 3 6.75V5.25C3 4.00736 4.00736 3 5.25 3H18.75C19.9926 3 21 4.00736 21 5.25V6.75C21 7.5301 20.603 8.21748 20 8.62111V11.4982C19.5258 11.3004 19.0232 11.1572 18.5 11.0764V9H5.5V17.25C5.5 18.4926 6.50736 19.5 7.75 19.5ZM5.25 4.5C4.83579 4.5 4.5 4.83579 4.5 5.25V6.75C4.5 7.16421 4.83579 7.5 5.25 7.5H18.75C19.1642 7.5 19.5 7.16421 19.5 6.75V5.25C19.5 4.83579 19.1642 4.5 18.75 4.5H5.25ZM23 17.5C23 20.5376 20.5376 23 17.5 23C14.4624 23 12 20.5376 12 17.5C12 14.4624 14.4624 12 17.5 12C20.5376 12 23 14.4624 23 17.5ZM16.3536 15.3536C16.5488 15.1583 16.5488 14.8417 16.3536 14.6464C16.1583 14.4512 15.8417 14.4512 15.6464 14.6464L14.1464 16.1464C13.9512 16.3417 13.9512 16.6583 14.1464 16.8536L15.6464 18.3536C15.8417 18.5488 16.1583 18.5488 16.3536 18.3536C16.5488 18.1583 16.5488 17.8417 16.3536 17.6464L15.7071 17H17.75C18.9926 17 20 18.0074 20 19.25V19.5C20 19.7761 20.2239 20 20.5 20C20.7761 20 21 19.7761 21 19.5V19.25C21 17.4551 19.5449 16 17.75 16H15.7071L16.3536 15.3536Z" fill="#212121"/>
</svg>

<svg xmlns="http://www.w3.org/2000/svg" width="24" height="24"><path d="M10.25 11a.75.75 0 0 0 0 1.5h3.096a6.512 6.512 0 0 1 1.154-.768.75.75 0 0 0-.75-.732h-3.5Zm-2.5 8.5h3.563c.173.534.412 1.037.709 1.5H7.75A3.75 3.75 0 0 1 4 17.25V8.621A2.248 2.248 0 0 1 3 6.75v-1.5A2.25 2.25 0 0 1 5.25 3h13.5A2.25 2.25 0 0 1 21 5.25v1.5c0 .78-.397 1.467-1 1.871v2.877a6.452 6.452 0 0 0-1.5-.422V9h-13v8.25a2.25 2.25 0 0 0 2.25 2.25Zm-2.5-15a.75.75 0 0 0-.75.75v1.5c0 .414.336.75.75.75h13.5a.75.75 0 0 0 .75-.75v-1.5a.75.75 0 0 0-.75-.75H5.25ZM23 17.5a5.5 5.5 0 1 1-11 0 5.5 5.5 0 0 1 11 0Zm-6.646-2.146a.5.5 0 0 0-.708-.708l-1.5 1.5a.5.5 0 0 0 0 .708l1.5 1.5a.5.5 0 0 0 .708-.708L15.707 17h2.043A2.25 2.25 0 0 1 20 19.25v.25a.5.5 0 0 0 1 0v-.25A3.25 3.25 0 0 0 17.75 16h-2.043l.647-.646Z"/></svg>
